X: 1
T: String Quartet in G major opus 9 no 3 mvt 2
C: Franz Joseph Haydn
%%abc-version 2.0
%%abcx-abcm2ps-target-version 5.9.1 (29 Sep 2008)
%%abc-creator hum2abc beta
%%abcx-conversion-date 2021/02/14 14:38:11
%%abc-copyright Copyright (c) 1994, 2000 Center for Computer Assisted Research in the Humanities
%%abc-edited-by Frances Bennion
%%abcx-initial-encoding-date 1997/04/15
%%gracespace 0 6 6
%%humdrum-veritas 2764623898
%%humdrum-veritas-data 2217685193
%%linebreak <none>
%%barnumbers 0
L: 1/4
M: 3/4
N: Derived from op09n3-02.krn
Q: "Menuetto"
%%staves [1 2 3 4]
V: 1
V: 2
V: 3 clef=alto
V: 4 clef=bass
K: G
[V:1]d3 [I:setbarnb2] |
[V:2]D3 |
[V:3]z B, G, |
[V:4]z B, G, |
[V:1]e3 |
[V:2]E3 |
[V:3]z C G, |
[V:4]z C G, |
[V:1]=f3 |
[V:2]=F3 |
[V:3]z D G, |
[V:4]z D G, |
[V:1]e f g |
[V:2]E F G |
[V:3]C A, B, |
[V:4]C A, B, |
[V:1]a b c' |
[V:2]A B c |
[V:3]F, G, A, |
[V:4]F, G, A, |
[V:1]d' z (3g/a/g/ |
[V:2]d z d |
[V:3]B, z B |
[V:4]B, z2 |
[V:1]f d (3g/a/g/ |
[V:2]c z d |
[V:3]A z B |
[V:4]z3 |
[V:1]f c' (3g/a/g/ |
[V:2]c z d |
[V:3]A z B |
[V:4]z3 |
[V:1]f d (3g/a/g/ |
[V:2]c z d |
[V:3]A z B |
[V:4]z3 |
[V:1]f c' b |
[V:2]c a g |
[V:3]A D D |
[V:4]z F, G, |
[V:1]a g f |
[V:2]e B A |
[V:3]E D D |
[V:4]C, D, D, |
[V:1]g z2 |
[V:2]G z2 |
[V:3]G, z2 |
[V:4]G,, G, G,, |
[V:1]b2 ^d |
[V:2]B2 ^D |
[V:3]z G F |
[V:4]z G, F, |
[V:1]e g e |
[V:2]E G E |
[V:3]G E G |
[V:4]G, E, G, |
[V:1]^c A c |
[V:2]^C A, C |
[V:3]A2 G |
[V:4]A,2 G, |
[V:1]d =f d |
[V:2]D =F D |
[V:3]=F D F |
[V:4]=F, D, F, |
[V:1]B G B |
[V:2]B, G, B, |
[V:3]G2 =F |
[V:4]G,2 =F, |
[V:1]c d e |
[V:2]C D E |
[V:3]E D C |
[V:4]E, D, C, |
[V:1]d3 |
[V:2]D3 |
[V:3]B, B, G, |
[V:4]B,, B, G, |
[V:1]e3 |
[V:2]E3 |
[V:3]z C G, |
[V:4]z C G, |
[V:1]=f3 |
[V:2]=F3 |
[V:3]z D G, |
[V:4]z D G, |
[V:1]e f g |
[V:2]E F G |
[V:3]C A, B, |
[V:4]C A, B, |
[V:1]a b c' |
[V:2]A B c |
[V:3]F, G, A, |
[V:4]F, G, A, |
[V:1]d' z (3g/a/g/ |
[V:2]d z d |
[V:3]B, z B |
[V:4]B, z2 |
[V:1]f d (3g/a/g/ |
[V:2]c z d |
[V:3]A z B |
[V:4]z3 |
[V:1]f c' (3g/a/g/ |
[V:2]c z d |
[V:3]A z B |
[V:4]z3 |
[V:1]f d (3g/a/g/ |
[V:2]c z d |
[V:3]A z B |
[V:4]z3 |
[V:1]f c' b |
[V:2]c a g |
[V:3]A D D |
[V:4]z F, G, |
[V:1]a g f |
[V:2]e B A |
[V:3]E D D |
[V:4]C, D, D, |
[V:1]g z2 |
[V:2]G z2 |
[V:3]G, z2 |
[V:4]G,, G, G,, |
[V:1]d2 e |
[V:2]z B G- |
[V:3]z3 |
[V:4]z3 |
[V:1]^c d2- |
[V:2]G F D |
[V:3]z3 |
[V:4]z3 |
[V:1]d G c |
[V:2]E3- |
[V:3]z3 |
[V:4]z3 |
[V:1]F B2- |
[V:2]E D B, |
[V:3]z2 G, |
[V:4]z2 G, |
[V:1]B E A |
[V:2]E3 |
[V:3]C3 |
[V:4]C3- |
[V:1]F G2 |
[V:2]D3 |
[V:3]A, B,2 |
[V:4]C B, B,, |
[V:1]E c A/F/ |
[V:2]E2 C/A,/ |
[V:3]C A, D |
[V:4]C, A,, D, |
[V:1]G z2 |
[V:2]B, z2 |
[V:3]G, z2 |
[V:4]G,, G, G,, |
[V:1]D2 G |
[V:2]z D B, |
[V:3]z B, G, |
[V:4]z B,, G,, |
[V:1]E A2- |
[V:2]E2 C |
[V:3]C2 A, |
[V:4]C,2 A,, |
[V:1]A F B |
[V:2]F2 D |
[V:3]D2 B, |
[V:4]D,2 B,, |
[V:1]G c2- |
[V:2]G2 E |
[V:3]E2 C |
[V:4]E,2 C, |
[V:1]c A d- |
[V:2]A2 F |
[V:3]F2 D |
[V:4]F,2 D, |
[V:1]d B e |
[V:2]B z b |
[V:3]G z G- |
[V:4]G, z2 |
[V:1]^c d2- |
[V:2]a3 |
[V:3]G F D |
[V:4]z3 |
[V:1]d G c |
[V:2]g3 |
[V:3]E2 A, |
[V:4]z3 |
[V:1]F B2- |
[V:2]f3 |
[V:3]D2 G, |
[V:4]z2 G, |
[V:1]B E A |
[V:2]e3 |
[V:3]C3 |
[V:4]C3- |
[V:1]F G2 |
[V:2]d3 |
[V:3]A, B, D |
[V:4]C B, B,, |
[V:1]E c A/F/ |
[V:2]d c A/F/ |
[V:3]E2 C/A,/ |
[V:4]C, A,, D, |
[V:1]G z2 |]
[V:2]G z2 |]
[V:3]B, z2 |]
[V:4]G,, G, G,, |]

